_site/images/registration/google-icon.svg

<svg height="16" viewBox="0 0 16 16" width="16" xmlns="http://www.w3.org/2000/svg"><path d="m19.7988796 10.545h-7.636v3.273h4.328c-.692 2.182-2.401 2.909-4.363 2.909-2.0896082.0026276-3.93300718-1.3670597-4.53353364-3.3685184s.18432593-4.15973818 1.93021405-5.30792968c1.74588809-1.14819149 4.03850879-1.01382662 5.63831959.33044808l2.378-2.265c-2.6339234-2.42630333-6.559436-2.80660255-9.61012144-.93101771-3.05068549 1.87558483-4.48327533 5.55008651-3.50715029 8.99561691.97612504 3.4455305 4.12314199 5.8226213 7.70427173 5.8194008 4.411 0 8.4-2.909 7.671-9.455z" fill="#fff" transform="translate(-4 -4)"/></svg>

<?xml version="1.0" encoding="UTF-8"?>
<svg width="16px" height="16px" viewBox="0 0 16 16" version="1.1" xmlns="http://www.w3.org/2000/svg" xmlns:xlink="http://www.w3.org/1999/xlink">
    <!-- Generator: Sketch 52.6 (67491) - http://www.bohemiancoding.com/sketch -->
    <title>Icon</title>
    <desc>Created with Sketch.</desc>
    <g id="Sign-up" stroke="none" stroke-width="1" fill="none" fill-rule="evenodd">
        <g id="1.2--Sign-up" transform="translate(-996.000000, -728.000000)" fill="#FFFFFF" fill-rule="nonzero">
            <g id="Group-9" transform="translate(887.000000, 229.000000)">
                <g id="Button/Large---Left-Icon" transform="translate(0.000000, 487.000000)">
                    <g id="Group-4" transform="translate(105.000000, 8.000000)">
                        <g id="Icon/App/Google">
                            <path d="M19.7988796,10.545 L12.1628796,10.545 L12.1628796,13.818 L16.4908796,13.818 C15.7988796,16 14.0898796,16.727 12.1278796,16.727 C10.0382714,16.7296276 8.19487242,15.3599403 7.59434596,13.3584816 C6.9938195,11.3570229 7.77867189,9.19874342 9.52456001,8.05055192 C11.2704481,6.90236043 13.5630688,7.0367253 15.1628796,8.381 L17.5408796,6.116 C14.9069562,3.68969667 10.9814436,3.30939745 7.93075816,5.18498229 C4.88007267,7.06056712 3.44748283,10.7350688 4.42360787,14.1805992 C5.39973291,17.6261297 8.54674986,20.0032205 12.1278796,20 C16.5388796,20 20.5278796,17.091 19.7988796,10.545 Z" id="Fill"></path>
                        </g>
                    </g>
                </g>
            </g>
        </g>
    </g>
</svg>
